!!!COM1: Joplin, Scott
!!!CDT1: 1868/11/24/-1917/04/01/
!!!COM2: Hayden, Scott
!!!CDT2: 1882///-1915///
!!!OTL: Something Doing
!!!ONB: A Ragtime Two Step
!!!PPR: Val A. Reis Music Co.; St. Louis, Missouri
!!!PDT: 1903///
!! ODT is estimate:
!!!ODT: 1903///
!!!ENC: Craig Stuart Sapp
!!!YEC: Copyright 2001 by Craig Stuart Sapp
!!!YEN: United States of America
**kern	**kern
*lh	*rh
*Ilh	*Irh
*clefF4	*clefG2
*k[b-]	*k[b-]
*M2/4	*M2/4
*MM100	*MM100
*>[A,B,B1,B,B2,C,C1,C,C2,D,E,E,F,F1,F,F2]	*>[A,B,B1,B,B2,C,C1,C,C2,D,E,E,F,F1,F,F2]
*>A	*>A
16F	16f
16G	16g
=1	=1
16A	16a
8f	8ff
[16e	[16ee
4e]	4ee]
=2	=2
16d	16dd
16c#	16cc#
16d	16dd
[16B-	[16b-
4B-]	4b-]
=3	=3
16B-	16b-
16A	16a
16B-	16b-
[16G	[16g
16G]	16g]
16F	16a
16E	16b-
16D	16bn
=4	=4
8C	8cc
8r	8r
8C CC	8ccc gg ee cc
8r	8r
=5!|:	=5!|:
*>B	*>B
8F FF	16a
.	16cc
8f c A	16ff
.	[16aa
8C	16aa]
.	16ff
8f c A	16cc
.	16a
=6	=6
*^	*
8C	4C	8ee cc
8e c B-	.	8dd b-
8F	4F	4cc a
8f c A	.	.
*v	*v	*
=7	=7
8G GG	16bb- b-
.	16ee-
8e c B-	16gg
.	[16bb- [b-
8G GG	16bb-] b-]
.	16gg ee
8G# GG#	16bbn bn
.	[16ccc [cc
=8	=8
8A AA	16ccc] cc]
.	16ccc
8c C	16aa
.	16ff
8B- BB-	16dd
.	16dd-
8A AA	16cc
.	16b-
=9	=9
8F FF	16a
.	16cc
8f c A	16ff
.	[16aa
8C	16aa]
.	16ff
8f c A	16cc
.	16a
=10	=10
*^	*
8C	4C	8ee cc
8e c	.	8dd b-
*v	*v	*
8F	8cc a
8d# c A F#	8aa a
=11	=11
4e c G	16gg g
.	16cc
.	16ee
.	[16aa [ff# [dd [cc
8d D	16aa] ff#] dd] cc]
.	16aa ff# dd cc
8G GG	8bbn ffn dd
=12	=12
8c C	[4ccc [ee [cc
8B- BB-	.
8A AA	8ccc] ee] cc]
8G GG	8r
=13	=13
8F FF	16a
.	16cc
8f c A	16ff
.	[16aa
8C	16aa]
.	16ff
8f c A	16cc
.	16a
=14	=14
8C	8ee cc
8e c B-	8dd b-
8F	4cc a
8f c A	.
=15	=15
8G GG	16bb- b-
.	16ee
8e c B-	16gg
.	[16bb- [b-
8G GG	16bb-] b-]
.	16gg ee
8G# GG#	16bbn bn
.	[16ccc [cc
=16	=16
8A AA	16ccc] cc]
.	16ccc
8c C	16aa
.	16ff
8B- BB-	16dd
.	16dd-
8A AA	8cc
=17	=17
8B- BB-	16dd
.	16bb-
8g d B-	16ccc
.	[16eee [ee
8B- BB-	16eee] ee]
.	16bb-
8G# GG#	8ddd dd
=18	=18
8A AA	16ccc cc
.	16aa ff
8f c A	16ddd dd
.	[16ccc [cc
8f c A	16ccc] cc]
.	16aa
8r	16ff
.	16f#
=19	=19
8C	16g
.	8cc
8e c B-	.
.	16f#
8E	16g
.	8gg b- g
8c B- G	.
.	[16ffn [a [fn
=20	=20
*>B1	*>B1
*^	*
8F	[4c [A	4ff_ a_ f_
8C CC	.	.
8D DD	8c] A]	8ff] a] f]
8E EE	8r	8r
*v	*v	*
=21:|!	=21:|!
*>B2	*>B2
8c A F	8ff] a] f]
8r	16cc
.	16dd
4r	16ee
.	16ff
.	16gg
.	16aa
=22!|:	=22!|:
*>C	*>C
8G	16bb- b-
.	16ee
8e c B-	16gg
.	[16aa [ee [b-
8C	16aa] ee] b-]
.	16ee
8e c B-	8gg b-
=23	=23
8E	16g
.	16f#
8e c B-	16g
.	[16dd
8C	16dd]
.	16cc
8e c B-	16g
.	16g#
=24	=24
8F	16a
.	16c
8c A	16d
.	16d#
8C	16e
.	16f
8e c B-	16g
.	16g#
=25	=25
8F	16a
.	16g#
8f c A	16a
.	[16ff [cc [a
8C	16gg] cc] a]
.	16gg
8f c A	16gn
.	16a
=26	=26
*	*^
8G	2b-	16r
.	.	16ccc
8e c B-	.	16bb-
.	.	16gg
8C	.	16ee
.	.	8.ccc
8e c B-	.	.
*	*v	*v
=27	=27
8G	16b-
.	16a
8e c B-	16b-
.	[16aa [ee- [b-
8C	16aa] ee-] b-]
.	16gg
8e c B-	16ee
.	16cc
=28	=28
*	*^
8F	2a	16r
.	.	16ccc
8f c A	.	16aa
.	.	16ff
8C	.	16dd
.	.	8.cc
8f c A	.	.
*	*v	*v
=29	=29
8F	16a
.	16g#
8f c A	16a
.	[16gg [cc [a
8C	16gg] cc] a]
.	16ff
8f c A	16cc
.	16a
=30	=30
8F#	16dd
.	16ff#
8d c A	16aa
.	[16ddd [dd
8D	16ddd] dd]
.	16ccc
8d c A	16aa
.	16ff#
=31	=31
8F#	16dd
.	16ff#
8d c A	16aa
.	[16ddd [dd
8D	16ddd] dd]
.	16ccc
8d c A	16aa
.	16ff#
=32	=32
8F#	16dd
.	16cc#
8d c A	16dd
.	16ee-
8D	16dd
.	16ccn
8d c A	16b-
.	16a
=33	=33
8G	16b-
.	16g
8d B-	16b-
.	16dd
8d B-	8gg
8r	8r
=34	=34
8B- BB-	16dd
.	16cc#
8g f d B-	16dd
.	[16aa
8B- BB-	16aa]
.	16gg
8Bn BBn	16ff
.	16dd
=35	=35
8c C	16a
.	16g#
8f c A	16a
.	[16dd
8C	16dd]
.	16cc
8c A	16f
.	16f#
=36	=36
8E	16g
.	8cc
8e c B-	.
.	16f#
8C	16g
.	8gg b- g
8e c B-	.
.	[16ffn [a [fn
=37	=37
*>C1	*>C1
8c A F	8ff] a] f]
8r	16cc
.	16dd
4r	16ee
.	16ff
.	16gg
.	16aa
=38	=38
*>C2	*>C2
*^	*
8F	[4c [A	[4ff [a [f
8C CC	.	.
8D DD	8c] A]	8ff] a] f]
8E EE	8r	8r
*v	*v	*
=39||	=39||
*>D	*>D
8F FF	16a
.	16cc
8f c A	16ff
.	[16aa
8C	16aa]
.	16ff
8f c A	16cc
.	16a
=40	=40
*^	*
8C	4C	8ee cc
8e c B-	.	8dd b-
8F	4F	4cc a
8f c A	.	.
*v	*v	*
=41	=41
8G GG	16bb- b-
.	16ee-
8e c B-	16gg
.	[16bb- [b-
8G GG	16bb-] b-]
.	16gg ee
8G# GG#	16bbn bn
.	[16ccc [cc
=42	=42
8A AA	16ccc] cc]
.	16ccc
8c C	16aa
.	16ff
8B- BB-	16dd
.	16dd-
8A AA	16cc
.	16b-
=43	=43
8F FF	16a
.	16cc
8f c A	16ff
.	[16aa
8C	16aa]
.	16ff
8f c A	16cc
.	16a
=44	=44
*^	*
8C	4C	8ee cc
8e c	.	8dd b-
*v	*v	*
8F	8cc a
8d# c A F#	8aa a
=45	=45
4e c G	16gg g
.	16cc
.	16ee
.	[16aa [ff [dd [cc
8d D	16aa] ff] dd] cc]
.	16aa ff dd cc
8G GG	8bbn ffn dd
=46	=46
8c C	[4ccc [ee [cc
8B- BB-	.
8A AA	8ccc] ee] cc]
8G GG	8r
=47	=47
8F FF	16a
.	16cc
8f c A	16ff
.	[16aa
8C	16aa]
.	16ff
8f c A	16cc
.	16a
=48	=48
8C	8ee cc
8e c B-	8dd b-
8F	4cc a
8f c A	.
=49	=49
8G GG	16bb- b-
.	16ee
8e c B-	16gg
.	[16bb- [b-
8G GG	16bb-] b-]
.	16gg ee
8G# GG#	16bbn bn
.	[16ccc [cc
=50	=50
8A AA	16ccc] cc]
.	16ccc
8c C	16aa
.	16ff
8B- BB-	16dd
.	16dd-
8A AA	8cc
=51	=51
8B- BB-	16ddd dd
.	16bb-
8g d B-	16ccc
.	[16eee [ee
8B- BB-	16eee] ee]
.	16bb-
8G# GG#	8ddd dd
=52	=52
8A AA	16ccc cc
.	16aa ff
8f c A	16ddd dd
.	[16ccc [cc
8f c A	16ccc] cc]
.	16aa
8r	16ff
.	16f#
=53	=53
8C	16g
.	8cc
8e c B-	.
.	16f#
8E	16g
.	8gg b- g
8c B- E	.
.	[16ffn [a [fn
=54	=54
*^	*
8F	[4c [A	4ff] a] f]
8C	.	.
8FF	8c] A]	8ff a f
8r	8r	8r
*v	*v	*
=55!|:	=55!|:
*>E	*>E
*k[b-e-]	*k[b-e-]
*B-:	*B-:
8BB-	16ff
.	16een
8d B- F	16ff
.	[16gg
8FF	16gg]
.	16ff
8d B- F	16cc
.	16dd
=56	=56
8C	16ee-
.	16dd
8e- A F	16ee-
.	[16a
8FF	4a]
8e- A F	.
=57	=57
8C	16a
.	16g#
8e- c F	16a
.	[16dd
8FF	16dd]
.	16cc
8e- c F	16gn
.	16a
=58	=58
8BB-	16b-
.	16a
8d B- F	16b-
.	[16g
8FF	8g]
8d B- F	8dd
=59	=59
8B- BB-	8cc
8d B- F	8b-
8d D	8g
8d- D-	8g#
=60	=60
8c C	16a
.	16ff
8e- A F	16ee-
.	16cc
8FF	8a
8e- A F	8ee-
=61	=61
8C	8dd
8e- A F	8cc
8FF	8g
8e- A F	8a
=62	=62
8BB-	16b-
.	16ff
8d B- F	16dd
.	16b-
8FF	4g
8d B- F	.
=63	=63
8BB-	16ff
.	16een
8d B- F	16ff
.	[16gg
8FF	16gg]
.	16ff
8d B- F	16cc
.	16dd
=64	=64
8C	16ee-
.	16dd
8e- A F	16ee-
.	[16a
8FF	4a]
8e- A F	.
=65	=65
8C	16a
.	16g#
8e- c F	16a
.	[16dd
8FF	16dd]
.	16cc
8e- c F	16gn
.	16a
=66	=66
8BB-	16b-
.	16a
8d B- F	16b-
.	[16g
8FF	4g]
8d B- F	.
=67	=67
8E- EE-	8ee- g
8e- B- G	8b- g
8G GG	8cc b-
8G- GG-	8cc# b-
=68	=68
*	*^
8F FF	2b-	16dd
.	.	16cc#
8d B- F	.	16dd
.	.	[16gg
8FF	.	16gg]
.	.	16ff
8d B- F	.	16dd
.	.	16b-
*	*v	*v
=69	=69
8C	16g
.	16g#
8e- A F	16a
.	[16ff [a
8FF	16ff] a]
.	16ee
8e- A F	16g
.	16a
=70	=70
8BB-	[4b-
8d B- F	.
8d B- F	8b-]
8r	8ff
=71:||:	=71:!!:
*>F	*>F
8B- BB-	16bb- dd b-
.	16b-
8d B- F	16cc
.	16cc#
8d D	16dd
.	8aa
8d- D-	.
.	16gg
=72	=72
8c C	8ff
8e- A F	16a
.	[16ee- [cc
8FF	8.ee-] cc]
8e- A F	.
.	[16bb- [dd [b-
=73	=73
8B- BB-	16bb-] dd] b-]
.	16b-
8d B- F	16cc
.	16cc#
8d D	16dd
.	8aa
8d- D-	.
.	16gg
=74	=74
8c C	8ff
8F FF	16g
.	[16ee- [cc
8A AA	8.ee-] cc]
8A- AA-	.
.	[16gg [dd [bn [g
=75	=75
8G GG	16gg] dd] bn] g]
.	16g
8f d Bn G	16bn
.	16dd
8BBn	16gg
.	8ff
8f d G	.
.	[16ee- [cc [g
=76	=76
8C CC	8ee-] cc] g]
8D DD	8dd bn g f
8E- EE-	4cc g e-
8c G E-	.
=77	=77
8C CC	8dd b- en
8c B- G	8cc b- e
8En EEn	8dd b-
8c B- G	8cc b-
=78	=78
8F FF	8gg ee- a
8e- c F	8ff ee- a
8FF	8ddd aa ee-
8e- A F	8ccc aa ee-
=79	=79
8BB-	16bb- dd
.	16b-
8d B- F	16cc
.	16cc#
8d D	16dd
.	8aa
8d- D-	.
.	16gg
=80	=80
8c C	8ff
8e- A F	16a
.	[16ee- [cc
8FF	8.ee-] cc]
8e- A F	.
.	[16bb- [dd [b-
=81	=81
8B- BB-	16bb-] dd] b-]
.	16b-
8d B- F	16cc
.	16cc#
8d D	16dd
.	8aa
8d- D-	.
.	16gg
=82	=82
8c C	8ff
8F FF	16a
.	[16ee- [cc
8G GG	8.ee-] cc]
8A- AA-	.
.	[16gg [dd [b [g
=83	=83
8G GG	16gg] dd] b] g]
.	16g
8f d Bn G	16bn
.	16dd
8BBn	16gg
.	8ff
8f d G	.
.	[16ee- [cc [g
=84	=84
8C CC	8ee-] cc] g]
8D DD	8dd bn g f
8E- EE-	8cc g e-
8En EEn	8gg cc# b-
=85	=85
8F FF	16ff dd b-
.	16f
8d B- F	16g
.	16g#
8FF	16a
.	16ff
8e- A F	16gn
.	16a
=86	=86
*>F1	*>F1
8BB-	[4b-
8d B- F	.
8d B- F	8b-]
8r	8ff
=87	=87
*>F2	*>F2
*^	*
8d B-	4d	4b-
8F FF	.	.
*v	*v	*
8BB- BBB-	8bb- dd b-
==;	==;
*-	*-
